X: 242
T: Ku zhangfu
%%abc-version 2.0
%%abcx-abcm2ps-target-version 5.9.1 (29 Sep 2008)
%%abc-creator hum2abc beta
%%abcx-conversion-date 2013/10/02 07:52:29
%%abc-edited-by Helmut Schaffrath
%%humdrum-veritas 3402361400
%%humdrum-veritas-data 3766757249
%%continueall 1
%%barnumbers 0
L: 1/8
K: G
d d A/ E/ [I:setbarnb 1]| 
G/ A/d2 | 
G e d | 
B/ A/ G2<B2A F E | 
G, E/ D/B,2 | 
A> G AA2 | 
d G F E | 
D/ E/D2 |]  



